imgs/favicon.svg

<svg width="32" height="32" viewBox="0 0 32 32" fill="none" xmlns="http://www.w3.org/2000/svg">
<path d="M32 16C32 24.8366 24.8366 32 16 32C7.16344 32 0 24.8366 0 16C0 7.16344 7.16344 0 16 0C24.8366 0 32 7.16344 32 16Z" fill="#081922"/>
<path d="M6.22447 21.3309C6.22447 21.7267 6.25491 22.0159 6.31581 22.1986C6.3767 22.3661 6.49087 22.4802 6.65833 22.5411C6.84101 22.602 7.13025 22.6325 7.52606 22.6325H8.30245C9.48986 22.6325 10.5174 22.3204 11.3852 21.6962C12.2529 21.0569 12.8314 20.1967 13.1206 19.1159C13.1206 19.0854 13.1511 19.0702 13.212 19.0702C13.2424 19.0702 13.2729 19.0854 13.3033 19.1159C13.349 19.1311 13.3718 19.1463 13.3718 19.1616C13.2348 20.6687 13.1663 21.9246 13.1663 22.9293C13.1663 23.0511 13.1358 23.1424 13.075 23.2033C13.0293 23.249 12.9456 23.2718 12.8238 23.2718H2.04567C2.01522 23.2718 2 23.2262 2 23.1348C2 23.0435 2.01522 22.9978 2.04567 22.9978C2.53282 22.9978 2.88295 22.9598 3.09608 22.8836C3.32443 22.8075 3.47666 22.6629 3.55278 22.4498C3.64412 22.2214 3.68979 21.8789 3.68979 21.4222V10.8496C3.68979 10.3929 3.64412 10.058 3.55278 9.84489C3.47666 9.63177 3.32443 9.48714 3.09608 9.41103C2.86773 9.31969 2.51759 9.27402 2.04567 9.27402C2.01522 9.27402 2 9.22835 2 9.13701C2 9.04567 2.01522 9 2.04567 9L3.21025 9.02283C3.91052 9.05328 4.48901 9.0685 4.94571 9.0685C5.40241 9.0685 5.98089 9.05328 6.68117 9.02283L7.84575 9C7.89142 9 7.91425 9.04567 7.91425 9.13701C7.91425 9.22835 7.89142 9.27402 7.84575 9.27402C7.37383 9.27402 7.02369 9.31969 6.79534 9.41103C6.56699 9.48714 6.41476 9.63938 6.33864 9.86773C6.26252 10.0809 6.22447 10.4158 6.22447 10.8725V21.3309Z" fill="#FFB845"/>
<path d="M29.9543 9C29.9848 9 30 9.04567 30 9.13701C30 9.22835 29.9848 9.27402 29.9543 9.27402C29.3454 9.27402 28.8659 9.51759 28.5157 10.0047C28.1656 10.4767 27.9905 11.116 27.9905 11.9229V23.6144C27.9905 23.66 27.9525 23.6905 27.8763 23.7057C27.8155 23.7209 27.7698 23.7133 27.7393 23.6829L17.0297 11.489V20.3718C17.0297 21.1786 17.1972 21.818 17.5321 22.2899C17.867 22.7619 18.3313 22.9978 18.925 22.9978C18.9555 22.9978 18.9707 23.0435 18.9707 23.1348C18.9707 23.2262 18.9555 23.2718 18.925 23.2718C18.4988 23.2718 18.1715 23.2642 17.9431 23.249L16.7101 23.2262L15.2943 23.249C15.0355 23.2642 14.6625 23.2718 14.1754 23.2718C14.1297 23.2718 14.1069 23.2262 14.1069 23.1348C14.1069 23.0435 14.1297 22.9978 14.1754 22.9978C14.8452 22.9978 15.3704 22.7619 15.751 22.2899C16.1468 21.818 16.3447 21.1786 16.3447 20.3718V10.7126C15.8423 10.1646 15.4085 9.79161 15.0431 9.59371C14.693 9.38058 14.3276 9.27402 13.947 9.27402C13.9166 9.27402 13.9014 9.22835 13.9014 9.13701C13.9014 9.04567 13.9166 9 13.947 9L14.9061 9.02283C15.104 9.03806 15.3932 9.04567 15.7738 9.04567L17.5093 9.02283C17.7224 9.00761 17.9812 9 18.2857 9C18.4075 9 18.4988 9.03045 18.5597 9.09134C18.6206 9.15223 18.7271 9.28163 18.8794 9.47953C19.1382 9.82967 19.3209 10.0656 19.4274 10.1874L27.3283 19.2986V11.9229C27.3283 11.1008 27.1609 10.4538 26.8259 9.9819C26.491 9.50998 26.0267 9.27402 25.433 9.27402C25.4026 9.27402 25.3873 9.22835 25.3873 9.13701C25.3873 9.04567 25.4026 9 25.433 9L26.4149 9.02283C26.9021 9.05328 27.3131 9.0685 27.648 9.0685C27.9525 9.0685 28.3787 9.05328 28.9268 9.02283L29.9543 9Z" fill="#FFB845"/>
</svg>

<svg width="32" height="32" fill="none" xmlns="http://www.w3.org/2000/svg"><path d="M32 16c0 8.837-7.163 16-16 16S0 24.837 0 16 7.163 0 16 0s16 7.163 16 16Z" fill="#081922"/><path d="M6.224 21.33c0 .397.03.686.092.869.06.167.175.281.342.342.183.061.472.091.868.091h.776c1.188 0 2.215-.312 3.083-.936.868-.64 1.446-1.5 1.736-2.58 0-.03.03-.046.091-.046.03 0 .06.015.091.046.046.015.069.03.069.046-.137 1.507-.206 2.763-.206 3.767 0 .122-.03.213-.091.274-.046.046-.13.069-.251.069H2.046c-.03 0-.046-.046-.046-.137 0-.091.015-.137.046-.137.487 0 .837-.038 1.05-.114a.686.686 0 0 0 .457-.434c.091-.229.137-.571.137-1.028V10.85c0-.457-.046-.792-.137-1.005a.686.686 0 0 0-.457-.434c-.228-.091-.578-.137-1.05-.137-.03 0-.046-.046-.046-.137C2 9.046 2.015 9 2.046 9l1.164.023c.7.03 1.279.046 1.736.046.456 0 1.035-.016 1.735-.046L7.846 9c.045 0 .068.046.068.137 0 .091-.023.137-.068.137-.472 0-.822.046-1.05.137a.686.686 0 0 0-.457.457c-.076.213-.115.548-.115 1.005V21.33ZM29.954 9c.03 0 .046.046.046.137 0 .091-.015.137-.046.137-.609 0-1.088.244-1.438.73-.35.473-.525 1.112-.525 1.919v11.691c0 .046-.038.076-.115.092-.06.015-.106.007-.137-.023L17.03 11.489v8.883c0 .807.168 1.446.503 1.918.335.472.8.708 1.393.708.03 0 .046.046.046.137 0 .091-.015.137-.046.137-.426 0-.753-.008-.982-.023l-1.233-.023-1.416.023c-.258.015-.632.023-1.119.023-.045 0-.068-.046-.068-.137 0-.091.023-.137.068-.137.67 0 1.195-.236 1.576-.708.396-.472.594-1.111.594-1.918v-9.66c-.503-.547-.936-.92-1.302-1.118a2.078 2.078 0 0 0-1.096-.32c-.03 0-.046-.046-.046-.137 0-.091.016-.137.046-.137l.96.023c.197.015.486.023.867.023l1.735-.023c.213-.015.472-.023.777-.023.121 0 .213.03.274.091.06.061.167.19.32.389.258.35.44.586.547.707l7.901 9.112v-7.376c0-.822-.167-1.47-.502-1.941-.335-.472-.8-.708-1.393-.708-.03 0-.046-.046-.046-.137 0-.091.016-.137.046-.137l.982.023c.487.03.898.046 1.233.046.305 0 .73-.016 1.279-.046L29.954 9Z" fill="#FFB845"/></svg>
